!!!OTL: 151. Der Schaefer am Koenigsschloss.
!!!COM: Silcher
!!!ODT: 1835
!!!ARE: Europa, Mitteleuropa, Deutschland
!!!SCT: B0151
!!!TXL: @@DE
!!!YEM: Copyright 1995, estate of Helmut Schaffrath.
**kern	**text
*ICvox	*
*Ivox	*
*M3/4	*
*clefG2	*
*k[]	*
*C:	*
!LO:TX:a:t=Mäßig langſam.	!
{8g	Der
=1	=1
8.e	ſchö-
16f	-ne
8a	Schä-
8g	-fer
8cc	ʒog
16b\L	ſo
16aJ	.
=2	=2
(4a	nah
4g)	.
8r}	.
{8g	vor-
=3	=3
8.g	-u-
16cc	-ber
8cc	an
8ee	dem
8dd	Kö-
8cc	-nigs-
=4	=4
2b	-ſchloß;
8r}	.
{8b	die
=5	=5
8.dd	Jung-
16dd	-frau
8dd	von
16ccL	der
16bJ	.
8a	Ʒin-
8cc	-ne
=6	=6
(4cc	ſah:
8b)}	.
{8dd	da
8dd	war
8ff	ihr
=7	=7
2ee	Seh-
4dd	-nen
=8	=8
2cc	groß.
8r}	.
==	==
!!!AGN: Ballade, Romanze
!!!GTL: Balladen und Romanzen
!!!ONB: ESAC (Essen Associative Code) Database: BOEHME
!!!AMT: simple triple
!!!AIN: vox
!!!EED: Helmut Schaffrath
!!!EEV: 1.0
!!@@COMMENT:"Gedicht von L. Uhland. 1805."
!!@@END:
!!!Text: L. Uhland
!!!URL-scan: https://archive.org/details/BoehmeVtLieder1895/page/n151/mode/2up
!!!ENC: Anna Maria Matuszewska
!!!EEV: 2024/19/06
*-	*-
